X: 16726
T: Harbour Deep Tune
R: polka
M: 2/4
K: Amixolydian
|:B2 BA|Bd ed/e/|fd de|fA BA|
AB cd|ef ed/e/|fA B2|A4:|
|:a2- ag|fg ed/e/|fd de|fd ed|
fa ag|fg ed/e/|fa B2|A4:|

